frontend/src/assets/icons/message-heart-square.svg

<svg width="24" height="24" viewBox="0 0 24 24" fill="none" xmlns="http://www.w3.org/2000/svg">
<g id="message-heart-square">
<g id="Icon">
<path d="M3 7.8C3 6.11984 3 5.27976 3.32698 4.63803C3.6146 4.07354 4.07354 3.6146 4.63803 3.32698C5.27976 3 6.11984 3 7.8 3H16.2C17.8802 3 18.7202 3 19.362 3.32698C19.9265 3.6146 20.3854 4.07354 20.673 4.63803C21 5.27976 21 6.11984 21 7.8V13.2C21 14.8802 21 15.7202 20.673 16.362C20.3854 16.9265 19.9265 17.3854 19.362 17.673C18.7202 18 17.8802 18 16.2 18H13.6837C13.0597 18 12.7477 18 12.4492 18.0613C12.1844 18.1156 11.9282 18.2055 11.6875 18.3285C11.4162 18.4671 11.1725 18.662 10.6852 19.0518L8.29976 20.9602C7.88367 21.2931 7.67563 21.4595 7.50054 21.4597C7.34827 21.4599 7.20422 21.3906 7.10923 21.2716C7 21.1348 7 20.8684 7 20.3355V18C6.07003 18 5.60504 18 5.22354 17.8978C4.18827 17.6204 3.37962 16.8117 3.10222 15.7765C3 15.395 3 14.93 3 14V7.8Z" stroke="black" stroke-width="2" stroke-linecap="round" stroke-linejoin="round"/>
<path fill-rule="evenodd" clip-rule="evenodd" d="M11.9969 7.69925C11.0972 6.6604 9.59689 6.38095 8.46961 7.33223C7.34234 8.2835 7.18364 9.87399 8.06889 10.9991C8.61733 11.6961 9.99389 12.9691 10.962 13.837C11.3176 14.1557 11.4953 14.3151 11.7087 14.3793C11.8918 14.4344 12.1021 14.4344 12.2851 14.3793C12.4985 14.3151 12.6763 14.1557 13.0319 13.837C13.9999 12.9691 15.3765 11.6961 15.9249 10.9991C16.8102 9.87399 16.6709 8.2735 15.5242 7.33223C14.3776 6.39096 12.8966 6.6604 11.9969 7.69925Z" stroke="black" stroke-width="2" stroke-linecap="round" stroke-linejoin="round"/>
</g>
</g>
</svg>

<svg xmlns="http://www.w3.org/2000/svg" width="24" height="24" fill="none" viewBox="0 0 24 24">
  <path stroke="#000" stroke-linecap="round" stroke-linejoin="round" stroke-width="2" d="M3 7.8c0-1.68 0-2.52.327-3.162a3 3 0 0 1 1.311-1.311C5.28 3 6.12 3 7.8 3h8.4c1.68 0 2.52 0 3.162.327a3 3 0 0 1 1.311 1.311C21 5.28 21 6.12 21 7.8v5.4c0 1.68 0 2.52-.327 3.162a3 3 0 0 1-1.311 1.311C18.72 18 17.88 18 16.2 18h-2.516c-.624 0-.936 0-1.235.061a2.997 2.997 0 0 0-.761.267c-.272.14-.516.334-1.003.724L8.3 20.96c-.416.333-.624.5-.8.5a.5.5 0 0 1-.39-.188C7 21.135 7 20.868 7 20.336V18c-.93 0-1.395 0-1.776-.102a3 3 0 0 1-2.122-2.121C3 15.395 3 14.93 3 14V7.8Z"/>
  <path stroke="#000" stroke-linecap="round" stroke-linejoin="round" stroke-width="2" d="M11.997 7.7c-.9-1.04-2.4-1.319-3.527-.368-1.128.952-1.286 2.542-.401 3.667.548.697 1.925 1.97 2.893 2.838.356.319.533.478.747.542.183.055.393.055.576 0 .213-.064.391-.223.747-.542.968-.868 2.345-2.14 2.893-2.838a2.606 2.606 0 0 0-.4-3.667c-1.147-.941-2.628-.672-3.528.367Z" clip-rule="evenodd"/>
</svg>
